Obsidian/status/22s/keybase-update.svg

<svg height="22" width="22" xmlns="http://www.w3.org/2000/svg"><path d="m9.3378906 3c-.04614 0-.3480001.5097587-.6347656 1.0722656-.4197997.8234637-.6207703 1.4559473-.6894531 2.1875-.016969.1807744-.0133293.3586758-.0019531.5332032-.0070803.0786239-.0109988.157397-.0117188.2363281 0 .3216121.06468.625957.1601562.9160156-1.2650574.5642329-2.3364042 1.4850696-3.0722656 2.6445315-.1810603.236758-.3410751.483545-.4570312.748047-.1822119.415634-.3173554.845821-.4199219 1.310547-.068248.275755-.1256893.554232-.1601563.841796-.00307.0256.0050102.030974.0175782.027344-.013155.110763-.0307827.216029-.0410156.332031-.0328055.371885-.0367449.525389-.0117188.525391l3.984375-4.375-1.03125 3.455078c.00607.0061.1375376-.04757.2929688-.11914.9549601-.439703 2.1451295-1.206465 3.1972652-1.332032.36284-.0433 1.621735-.047462 2-.007812.37305.039089.729972.199432 1.097657.380859a5 5 0 0 1 3.443359-1.376953 5 5 0 0 1 .140625.007812c-.015968-.052082-.041359-.111494-.085937-.189453-.095891-.254803-.237999-.510365-.451172-.798828-.790591-.868769-1.718122-1.5907508-2.765625-2.0703122.096341-.2912394.162109-.5967946.162109-.9199219-.000026-.075507-.002115-.1512747-.007812-.2265625.002599-.075259.009759-.1505538.005859-.2246094-.053121-1.0171424-.647719-1.7149862-1.544922-2.1738281-.475007-.2429255-1.201657-.3564852-1.675781-.3574219-.591493-.001166-1.0409931-.50973-1.3300784-.9257812-.0462749-.0666007-.0955862-.1210944-.109375-.1210938zm7.6621094 9c-2.2091 0-4 1.7909-4 4s1.7909 4 4 4 4-1.7909 4-4-1.7909-4-4-4zm-4.644531.990234c-.142321-.01491-1.677283-.00614-1.777344.00586-.6646016.07932-1.8290213.755645-2.8984375 1.248047-.088747.04086-.1700516.077252-.2441406.107421-.037045.015082-.0686548.027802-.1191407.044922-.0252429.0086-.0507.018011-.1171874.033204-.033244.0076-.072608.017837-.171875.023437-.0496331.0028-.2280842-.011639-.2285157-.011719-.0002157-.00004-.2205474-.066336-.2207031-.066406-.0001557-.000066-.3182645-.214748-.3183594-.214844a1.0001 1.0001 0 0 1 -.2636718-.472656l-1.2402344 1.361328a1.0001 1.0001 0 0 1 -.6660156.324219 6.9999312 6.9999312 0 0 0 1.703125 3.626953h7.2148432a5 5 0 0 1 -1.007812-3 5 5 0 0 1 .863281-2.806641c-.212687-.105355-.393279-.191123-.507812-.203125zm4.644531.009766a3 3 0 0 1 3 3h-1a2 2 0 0 0 -2-2zm-9 2a1 1 0 0 1 1 1 1 1 0 0 1 -1 1 1 1 0 0 1 -1-1 1 1 0 0 1 1-1zm6 1h1a2 2 0 0 0 2 2v1a3 3 0 0 1 -3-3z" fill="#d3dae3"/></svg>

<svg xmlns="http://www.w3.org/2000/svg" width="22" height="22" version="1.1">
 <defs>
  <style id="current-color-scheme" type="text/css">
   .ColorScheme-Text { color:#d3dae3; } .ColorScheme-Highlight { color:#5294e2; }
  </style>
 </defs>
 <path style="fill:currentColor" class="ColorScheme-Text" d="M 9.3378906 3 C 9.2917506 3 8.9898905 3.5097587 8.703125 4.0722656 C 8.2833253 4.8957293 8.0823547 5.5282129 8.0136719 6.2597656 C 7.9967029 6.44054 8.0003426 6.6184414 8.0117188 6.7929688 C 8.0046385 6.8715927 8.00072 6.9503658 8 7.0292969 C 8 7.350909 8.06468 7.6552539 8.1601562 7.9453125 C 6.8950988 8.5095454 5.823752 9.4303821 5.0878906 10.589844 C 4.9068303 10.826602 4.7468155 11.073389 4.6308594 11.337891 C 4.4486475 11.753525 4.313504 12.183712 4.2109375 12.648438 C 4.1426895 12.924193 4.0852482 13.20267 4.0507812 13.490234 C 4.0477112 13.515834 4.0557914 13.521208 4.0683594 13.517578 C 4.0552044 13.628341 4.0375767 13.733607 4.0273438 13.849609 C 3.9945383 14.221494 3.9905989 14.374998 4.015625 14.375 L 8 10 L 6.96875 13.455078 C 6.97482 13.461178 7.1062876 13.407508 7.2617188 13.335938 C 8.2166789 12.896235 9.4068483 12.129473 10.458984 12.003906 C 10.821824 11.960606 12.080719 11.956444 12.458984 11.996094 C 12.832034 12.035183 13.188956 12.195526 13.556641 12.376953 A 5 5 0 0 1 17 11 A 5 5 0 0 1 17.140625 11.007812 C 17.124657 10.95573 17.099266 10.896318 17.054688 10.818359 C 16.958797 10.563556 16.816689 10.307994 16.603516 10.019531 C 15.812925 9.150762 14.885394 8.4287802 13.837891 7.9492188 C 13.934232 7.6579794 14 7.3524242 14 7.0292969 C 13.999974 6.9537899 13.997885 6.8780222 13.992188 6.8027344 C 13.994787 6.7274754 14.001947 6.6521806 13.998047 6.578125 C 13.944926 5.5609826 13.350328 4.8631388 12.453125 4.4042969 C 11.978118 4.1613714 11.251468 4.0478117 10.777344 4.046875 C 10.185851 4.045709 9.7363509 3.537145 9.4472656 3.1210938 C 9.4009907 3.0544931 9.3516794 2.9999994 9.3378906 3 z M 17 12 C 14.7909 12 13 13.7909 13 16 C 13 18.2091 14.7909 20 17 20 C 19.2091 20 21 18.2091 21 16 C 21 13.7909 19.2091 12 17 12 z M 12.355469 12.990234 C 12.213148 12.975324 10.678186 12.984094 10.578125 12.996094 C 9.9135234 13.075414 8.7491037 13.751739 7.6796875 14.244141 C 7.5909405 14.285001 7.5096359 14.321393 7.4355469 14.351562 C 7.3985019 14.366644 7.3668921 14.379364 7.3164062 14.396484 C 7.2911633 14.405084 7.2657062 14.414495 7.1992188 14.429688 C 7.1659748 14.437288 7.1266108 14.447525 7.0273438 14.453125 C 6.9777107 14.455925 6.7992596 14.441486 6.7988281 14.441406 C 6.7986124 14.441366 6.5782807 14.37507 6.578125 14.375 C 6.5779693 14.374934 6.2598605 14.160252 6.2597656 14.160156 A 1.0001 1.0001 0 0 1 5.9960938 13.6875 L 4.7558594 15.048828 A 1.0001 1.0001 0 0 1 4.0898438 15.373047 A 6.9999312 6.9999312 0 0 0 5.7929688 19 L 13.007812 19 A 5 5 0 0 1 12 16 A 5 5 0 0 1 12.863281 13.193359 C 12.650594 13.088004 12.470002 13.002236 12.355469 12.990234 z M 17 13 A 3 3 0 0 1 20 16 L 19 16 A 2 2 0 0 0 17 14 L 17 13 z M 8 15 A 1 1 0 0 1 9 16 A 1 1 0 0 1 8 17 A 1 1 0 0 1 7 16 A 1 1 0 0 1 8 15 z M 14 16 L 15 16 A 2 2 0 0 0 17 18 L 17 19 A 3 3 0 0 1 14 16 z"/>
</svg>
